docs/public/svg/integrations/react.svg

<svg height="70" viewBox="0 0 70 70" width="70" xmlns="http://www.w3.org/2000/svg"><path d="m23.9381606 8.33333333c.057092.03167552.1119086.08539968.1716897.09171408 1.7759542.18736172 3.3937676.84333478 4.951593 1.67331619 2.3553552 1.2549094 4.4502798 2.871603 6.4123 4.6671701.2609477.238912.4340853.2431561.6923439.0042441.5935706-.5489388 1.1968634-1.089907 1.8250822-1.5985785 2.2319661-1.8072643 4.5931131-3.40180566 7.3520425-4.3079739.6137389-.20164675 1.2436126-.35453806 1.8661429-.52989207h2.0685506c.1587613.04803085.3155574.10423937.4765941.14274686 1.9933587.47627143 3.1971517 1.83076211 3.9303495 3.64258101.9508093 2.349371 1.1215681 4.8222352.8969235 7.3143531-.1801707 1.9990771-.4849716 3.9867676-.7383691 6.0115164 1.0958147.4091938 2.2931952.8254267 3.4667874 1.300663 2.5379047 1.0276945 4.9416639 2.3002015 6.9281965 4.2224706 1.4473648 1.4006583 2.5318025 3.0100023 2.420411 5.1624883-.0729164 1.4075937-.7029969 2.5751367-1.5730293 3.6320225-1.6375681 1.9891397-3.7665203 3.3239625-6.066128 4.3767077-1.6074707.7359899-3.2895126 1.3091512-4.938044 1.9552903-.0778809.0305369-.1546241.0640757-.2623956.1090011.1611401.8547214.3433794 1.6922593.4739049 2.5378714.48311 3.1281126.7497462 6.2591237-.0522309 9.3795762-.3472062 1.3513852-.8851328 2.6104353-1.8949992 3.6177374-1.2933613 1.290001-2.8784916 1.686152-4.6428618 1.4920618-2.9558554-.3252434-5.4572502-1.7330441-7.8172595-3.4091552-1.2746409-.9053401-2.4490605-1.9521849-3.6688848-2.9350576-.1047721-.084468-.2103716-.1681079-.3162814-.252783-.9881466.8194228-1.9325434 1.647748-2.9236894 2.415517-2.2604086 1.7508487-4.6593068 3.2626818-7.4696396 3.9752774-1.5260732.3869382-3.0632131.4962498-4.5509147-.1802192-1.8470089-.8399188-2.7646179-2.4333215-3.3100947-4.2705015-.7372314-2.4823876-.7778784-5.0256418-.4519783-7.5744858.1916512-1.4992043.4477378-2.990852.7104437-4.4794978.0755021-.4278265-.2308502-.3942878-.4414287-.4819648-1.9678122-.8185947-3.9848558-1.5351239-5.8959897-2.4693446-2.14756927-1.0499503-4.08776629-2.4360129-5.46386957-4.4639707-1.52855546-2.2528953-1.46691266-4.6362192.17189655-6.8130311 1.26791808-1.6839782 2.93030877-2.9015188 4.74225562-3.9292134 1.9838435-1.1252054 4.0757687-2.0063231 6.2557107-2.6694387.4924185-.1497858.6292531-.3377686.5059675-.8740786-.6479735-2.8164297-.9466722-5.6767496-.7530558-8.5632588.1453156-2.1684272.5864341-4.2692593 2.0267658-6.0163815.8389007-1.01744662 1.9269583-1.58470752 3.2159756-1.79546357.1111846-.01811509.2165773-.07246034.3246591-.1100362zm-3.2954079 38.69267967c-.610843 2.8658062-1.080404 5.7540751-.7065135 8.690789.1392135 1.0928053.4602526 2.1879915.8693084 3.2138228.4407047 1.1049166 1.3836535 1.6815973 2.5956173 1.5631764.8290751-.081052 1.6732506-.2337363 2.4571278-.5077399 2.254927-.7879544 4.1842642-2.1474137 6.0195857-3.6438231.6615225-.539312 1.2951195-1.1128873 1.9151675-1.6481621-.0430258-.1215263-.0464389-.1597233-.0667107-.1840492-1.6432566-1.9894503-3.2842378-3.9809708-4.9405262-5.959552-.1148046-.1370535-.3377944-.2240059-.5232399-.2537147-.6776572-.1082764-1.3649331-.158067-2.0409355-.2742106-1.8428717-.3167551-3.6816063-.655973-5.5788809-.9965366zm30.4318957.0031055c-2.2431362.3866276-4.3860512.7898176-6.5412741 1.1113345-.8954755.1336375-1.616262.2715192-2.2328969 1.1292425-1.3334911 1.8551916-2.8619432 3.5699136-4.3916363 5.44115 1.0929187.8738716 2.1889402 1.8152349 3.3518793 2.6647805 1.829633 1.3367897 3.7578325 2.5240005 6.0259982 2.9537938 1.9426793.367995 3.1651927.0894367 3.9230062-2.08251.3574455-1.0245891.5442357-2.1359236.6310114-3.2222075.1485219-1.8572619.0192375-3.7186644-.2945617-5.5594674-.1430402-.8395047-.3226938-1.6726951-.4715261-2.4361164zm-11.7399554 1.623629h-6.9903565c1.2054479 1.3851311 2.3294983 2.6763742 3.5243965 4.0494975 1.1904509-1.3909278 2.2974358-2.6843448 3.46596-4.0494975zm-3.4774404-22.9136138c-1.7777124.0943019-3.564423.1809438-5.3494787.2952241-.1889621.0120077-.4362573.1385027-.540926.291187-2.0106312 2.9322627-3.7740705 6.0084109-5.2875256 9.2261673-.0760192.1615865-.0944293.4166469-.0212026.5724366 1.5193504 3.2348364 3.3084398 6.3158498 5.3455484 9.2510109.1085989.1565143.3516536.2953276.5410294.3078529 1.3898592.0916105 2.7825109.2115842 4.1734043.2024749 2.1327791-.013664 4.2653513-.1138663 6.3967858-.2081682.2134744-.0094199.4904534-.1807368.6152904-.3616806 1.9787755-2.8704644 3.6919491-5.8955798 5.2130578-9.0320771.169104-.3486377.1441779-.6337174-.017893-.9694158-1.5100419-3.123972-3.2484518-6.114617-5.2175051-8.9699682-.1073578-.1557898-.343276-.3008139-.5282044-.3127181-1.7677834-.1141768-3.537325-.1984378-5.3223807-.2923257zm12.8035007 13.4869384c-1.1743161 2.0532153-2.2775776 3.9825235-3.4486875 6.030149 1.7647839-.3456358 3.4223135-.6705686 5.19351-1.0176536-.6029825-1.7321125-1.1606638-3.334107-1.7448225-5.0124954zm-25.6591289.0493766c-.5697823 1.6713493-1.1202236 3.2865937-1.6969355 4.978646 1.7628188.3383898 3.4108331.6547309 5.1554486.9896011-1.1830041-2.0414146-2.2855415-3.944016-3.4585131-5.9682471zm30.116752-11.1058919c-.0787083.0990636-.108392.1223544-.1195622.1524772-.8818231 2.4060972-1.7677833 4.8106416-2.6319203 7.2231567-.0658834.1839457-.0248227.442008.0488177.6341314.332623.8676607.7202694 1.714515 1.0411016 2.5863164.56368 1.5318114 1.0929187 3.0763552 1.6886612 4.7624036 1.6104701-.659803 3.2244567-1.2526321 4.7780416-1.9754757 1.7698519-.8235634 3.4285192-1.8491877 4.7643892-3.3116443.6591436-.7216014 1.233787-1.5048976 1.1750401-2.5552619-.0521274-.9327715-.5767119-1.6482656-1.183728-2.2933696-1.7755404-1.8872811-4.0258132-3.0407461-6.3699982-4.0270348-1.0549608-.4438713-2.1442595-.8062765-3.1908427-1.195699zm-34.5879241-.0152167c-1.2891208.5016326-2.6014093.9612381-3.8710856 1.5179405-2.0740323.9096877-4.0383279 2.0076688-5.62893989 3.6701159-1.34455788 1.4052129-1.5753047 2.6407651-.71695963 4.0336598.21481898.3486377.48476483.6709827.76815626.9683806 1.68752356 1.7702059 3.80851196 2.8740874 6.01193206 3.8281829 1.1314971.4900389 2.3064339.879565 3.4862317 1.3237468.0837763-.1971956.1415923-.3186184.187721-.4443888.8351773-2.2759791 1.6754225-4.5501985 2.4921897-6.832699.0779844-.2177951.0751918-.5135367-.0054816-.7301931-.3237282-.8703522-.7190282-1.714308-1.039757-2.5856953-.5690583-1.5455789-1.1030546-3.1042007-1.684007-4.7490503zm17.3893111 1.9292619c3.1837092.0110518 5.7254997 2.5803506 5.7093599 5.7718982-.0161901 3.1874295-2.5652573 5.6767336-5.8063495 5.6576941-3.0423311-.0181266-5.7263313-2.4070514-5.7055404-5.7290406.0217265-3.4586081 2.8632176-5.7109141 5.80253-5.7005517zm-9.4685206-3.6786614c-1.7628189.3418058-3.4298638.6649789-5.1838913 1.0051284.5924329 1.714929 1.1454599 3.3157849 1.7314803 5.0128059 1.1820733-2.0605649 2.2876101-3.9875957 3.452411-6.0179343zm18.7506871-.007039c1.176695 2.0347897 2.2905061 3.9606819 3.4618228 5.9863623.5769188-1.6964 1.122499-3.3004647 1.6955909-4.9851675-1.7444087-.3387003-3.4012143-.6603207-5.1574137-1.0011948zm1.8869318-15.1043566c-1.7143113.3446007-3.2245601 1.170959-4.6781306 2.1050762-1.624743 1.0439464-3.1182365 2.2552762-4.5554655 3.607179.1088058.154444.1710691.2571306.2468815.3484307 1.5827515 1.9053962 3.1634344 3.8124487 4.7579767 5.7079075.1171833.1393309.3262104.2460546.5083463.2778336.6253228.1090011 1.2607816.1591022 1.8865181.2659294 1.9092722.325968 3.8158553.6680843 5.7640162 1.0111322.0342345-.1395379.0943259-.3182043.1207-.501529.2386073-1.6655525.5564401-3.3253082.6838628-4.999556.1506939-1.9794093.0316488-3.9606819-.6827251-5.8522071-.4188815-1.1094712-1.0864028-1.9872764-2.3670425-2.0946212-.5553024-.0464782-1.1357377.0139745-1.6849379.1244247zm-26.6462413 2.1831264c-.3565147 1.0423936-.5897437 2.1777435-.6051544 3.274793-.0250295 1.7823172.1393168 3.5709488.295389 5.3506781.0756055.862485.314006 1.710685.4639759 2.4887019 2.593859-.4221332 5.0633981-.8384696 7.5394532-1.2121579.3872326-.0585893.5980179-.2242129.8229728-.5108453 1.0519614-1.3399986 2.1203678-2.6673684 3.2006684-3.9846973.5185856-.6321647 1.0768874-1.2317222 1.6729402-1.9093298-1.1872446-.9456074-2.2988837-1.8974256-3.4787849-2.7552524-1.8180491-1.3216765-3.7314584-2.516858-5.9864889-2.9079368-2.0718602-.3592997-3.1698469-.0411988-3.9249713 2.1660465zm15.3565059 5.4762415c-1.1890029 1.3861661-2.2956774 2.6762706-3.4615125 4.035523h6.97236c-1.2007936-1.3802659-2.3240166-2.671302-3.5108475-4.035523z" fill="#04b5e5" fill-rule="evenodd"/></svg>

<?xml version="1.0" encoding="UTF-8"?>
<svg width="70px" height="70px" viewBox="0 0 70 70" version="1.1" xmlns="http://www.w3.org/2000/svg" xmlns:xlink="http://www.w3.org/1999/xlink">
    <!-- Generator: Sketch 62 (91390) - https://sketch.com -->
    <title>Icon_React</title>
    <desc>Created with Sketch.</desc>
    <defs>
        <path d="M23.9381606,8.33333333 C23.9952526,8.36500885 24.0500692,8.41873301 24.1098503,8.42504741 C25.8858045,8.61240913 27.5036179,9.26838219 29.0614433,10.0983636 C31.4167985,11.353273 33.5117231,12.9699666 35.4737433,14.7655337 C35.734691,15.0044457 35.9078286,15.0086898 36.1660872,14.7697778 C36.7596578,14.220839 37.3629506,13.6798708 37.9911694,13.1711993 C40.2231355,11.363935 42.5842825,9.76939364 45.3432119,8.8632254 C45.9569508,8.66157865 46.5868245,8.50868734 47.2093548,8.33333333 L49.2779054,8.33333333 C49.4366667,8.38136418 49.5934628,8.4375727 49.7544995,8.47608019 C51.7478582,8.95235162 52.9516512,10.3068423 53.684849,12.1186612 C54.6356583,14.4680322 54.8064171,16.9408964 54.5817725,19.4330143 C54.4016018,21.4320914 54.0968009,23.4197819 53.8434034,25.4445307 C54.9392181,25.8537245 56.1365986,26.2699574 57.3101908,26.7451937 C59.8480955,27.7728882 62.2518547,29.0453952 64.2383873,30.9676643 C65.6857521,32.3683226 66.7701898,33.9776666 66.6587983,36.1301526 C66.5858819,37.5377463 65.9558014,38.7052893 65.085769,39.7621751 C63.4482009,41.7513148 61.3192487,43.0861376 59.019641,44.1388828 C57.4121703,44.8748727 55.7301284,45.448034 54.081597,46.0941731 C54.0037161,46.12471 53.9269729,46.1582488 53.8192014,46.2031742 C53.9803415,47.0578956 54.1625808,47.8954335 54.2931063,48.7410456 C54.7762163,51.8691582 55.0428525,55.0001693 54.2408754,58.1206218 C53.8936692,59.472007 53.3557426,60.7310571 52.3458762,61.7383592 C51.0525149,63.0283602 49.4673846,63.4245112 47.7030144,63.230421 C44.747159,62.9051776 42.2457642,61.4973769 39.8857549,59.8212658 C38.611114,58.9159257 37.4366944,57.8690809 36.2168701,56.8862082 C36.112098,56.8017402 36.0064985,56.7181003 35.9005887,56.6334252 C34.9124421,57.452848 33.9680453,58.2811732 32.9768993,59.0489422 C30.7164907,60.7997909 28.3175925,62.311624 25.5072597,63.0242196 C23.9811865,63.4111578 22.4440466,63.5204694 20.956345,62.8440004 C19.1093361,62.0040816 18.1917271,60.4106789 17.6462503,58.5734989 C16.9090189,56.0911113 16.8683719,53.5478571 17.194272,50.9990131 C17.3859232,49.4998088 17.6420098,48.0081611 17.9047157,46.5195153 C17.9802178,46.0916888 17.6738655,46.1252275 17.463287,46.0375505 C15.4954748,45.2189558 13.4784312,44.5024266 11.5672973,43.5682059 C9.41972803,42.5182556 7.47953101,41.132193 6.10342773,39.1042352 C4.57487227,36.8513399 4.63651507,34.468016 6.27532428,32.2912041 C7.54324236,30.6072259 9.20563305,29.3896853 11.0175799,28.3619907 C13.0014234,27.2367853 15.0933486,26.3556676 17.2732906,25.692552 C17.7657091,25.5427662 17.9025437,25.3547834 17.7792581,24.8184734 C17.1312846,22.0020437 16.8325859,19.1417238 17.0262023,16.2552146 C17.1715179,14.0867874 17.6126364,11.9859553 19.0529681,10.2388331 C19.8918688,9.22138648 20.9799264,8.65412558 22.2689437,8.44336953 C22.3801283,8.42525444 22.485521,8.37090919 22.5936028,8.33333333 L23.9381606,8.33333333 Z M20.6427527,47.026013 C20.0319097,49.8918192 19.5623487,52.7800881 19.9362392,55.716802 C20.0754527,56.8096073 20.3964918,57.9047935 20.8055476,58.9306248 C21.2462523,60.0355414 22.1892011,60.6122221 23.4011649,60.4938012 C24.23024,60.4127492 25.0744155,60.2600649 25.8582927,59.9860613 C28.1132197,59.1981069 30.0425569,57.8386476 31.8778784,56.3422382 C32.5394009,55.8029262 33.1729979,55.2293509 33.7930459,54.6940761 C33.7500201,54.5725498 33.746607,54.5343528 33.7263352,54.5100269 C32.0830786,52.5205766 30.4420974,50.5290561 28.785809,48.5504749 C28.6710044,48.4134214 28.4480146,48.326469 28.2625691,48.2967602 C27.5849119,48.1884838 26.897636,48.1386932 26.2216336,48.0225496 C24.3787619,47.7057945 22.5400273,47.3665766 20.6427527,47.026013 Z M51.0746484,47.0291185 C48.8315122,47.4157461 46.6885972,47.8189361 44.5333743,48.140453 C43.6378988,48.2740905 42.9171123,48.4119722 42.3004774,49.2696955 C40.9669863,51.1248871 39.4385342,52.8396091 37.9088411,54.7108455 C39.0017598,55.5847171 40.0977813,56.5260804 41.2607204,57.375626 C43.0903534,58.7124157 45.0185529,59.8996265 47.2867186,60.3294198 C49.2293979,60.6974148 50.4519113,60.4188565 51.2097248,58.2469098 C51.5671703,57.2223207 51.7539605,56.1109862 51.8407362,55.0247023 C51.9892581,53.1674404 51.8599737,51.3060379 51.5461745,49.4652349 C51.4031343,48.6257302 51.2234807,47.7925398 51.0746484,47.0291185 Z M39.334693,48.6527475 L32.3443365,48.6527475 C33.5497844,50.0378786 34.6738348,51.3291217 35.868733,52.702245 C37.0591839,51.3113172 38.1661688,50.0179002 39.334693,48.6527475 Z M35.8572526,25.7391337 C34.0795402,25.8334356 32.2928296,25.9200775 30.5077739,26.0343578 C30.3188118,26.0463655 30.0715166,26.1728605 29.9668479,26.3255448 C27.9562167,29.2578075 26.1927774,32.3339557 24.6793223,35.5517121 C24.6033031,35.7132986 24.584893,35.968359 24.6581197,36.1241487 C26.1774701,39.3589851 27.9665595,42.4399985 30.0036681,45.3751596 C30.112267,45.5316739 30.3553217,45.6704872 30.5446975,45.6830125 C31.9345567,45.774623 33.3272084,45.8945967 34.7181018,45.8854874 C36.8508809,45.8718234 38.9834531,45.7716211 41.1148876,45.6773192 C41.328362,45.6678993 41.605341,45.4965824 41.730178,45.3156386 C43.7089535,42.4451742 45.4221271,39.4200588 46.9432358,36.2835615 C47.1123398,35.9349238 47.0874137,35.6498441 46.9253428,35.3141457 C45.4153009,32.1901737 43.676891,29.1995287 41.7078377,26.3441775 C41.6004799,26.1883877 41.3645617,26.0433636 41.1796333,26.0314594 C39.4118499,25.9172826 37.6423083,25.8330216 35.8572526,25.7391337 Z M48.6607533,39.2260721 C47.4864372,41.2792874 46.3831757,43.2085956 45.2120658,45.2562211 C46.9768497,44.9105853 48.6343793,44.5856525 50.4055758,44.2385675 C49.8025933,42.506455 49.244912,40.9044605 48.6607533,39.2260721 Z M23.0016244,39.2754487 C22.4318421,40.946798 21.8814008,42.5620424 21.3046889,44.2540947 C23.0675077,44.5924845 24.715522,44.9088256 26.4601375,45.2436958 C25.2771334,43.2022812 24.174596,41.2996798 23.0016244,39.2754487 Z M53.1183764,28.1695568 C53.0396681,28.2686204 53.0099844,28.2919112 52.9988142,28.322034 C52.1169911,30.7281312 51.2310309,33.1326756 50.3668939,35.5451907 C50.3010105,35.7291364 50.3420712,35.9871987 50.4157116,36.1793221 C50.7483346,37.0469828 51.135981,37.8938371 51.4568132,38.7656385 C52.0204932,40.2974499 52.5497319,41.8419937 53.1454744,43.5280421 C54.7559445,42.8682391 56.3699311,42.27541 57.923516,41.5525664 C59.6933679,40.729003 61.3520352,39.7033787 62.6879052,38.2409221 C63.3470488,37.5193207 63.9216922,36.7360245 63.8629453,35.6856602 C63.8108179,34.7528887 63.2862334,34.0373946 62.6792173,33.3922906 C60.9036769,31.5050095 58.6534041,30.3515445 56.3092191,29.3652558 C55.2542583,28.9213845 54.1649596,28.5589793 53.1183764,28.1695568 Z M18.5304523,28.1543401 C17.2413315,28.6559727 15.929043,29.1155782 14.6593667,29.6722806 C12.5853344,30.5819683 10.6210388,31.6799494 9.03042681,33.3423965 C7.68586893,34.7476094 7.45512211,35.9831616 8.31346718,37.3760563 C8.52828616,37.724694 8.79823201,38.047039 9.08162344,38.3444369 C10.769147,40.1146428 12.8901354,41.2185243 15.0935555,42.1726198 C16.2250526,42.6626587 17.3999894,43.0521848 18.5797872,43.4963666 C18.6635635,43.299171 18.7213795,43.1777482 18.7675082,43.0519778 C19.6026855,40.7759987 20.4429307,38.5017793 21.2596979,36.2192788 C21.3376823,36.0014837 21.3348897,35.7057421 21.2542163,35.4890857 C20.9304881,34.6187335 20.5351881,33.7747777 20.2144593,32.9033904 C19.645401,31.3578115 19.1114047,29.7991897 18.5304523,28.1543401 Z M35.9197634,30.083602 C39.1034726,30.0946538 41.6452631,32.6639526 41.6291233,35.8555002 C41.6129332,39.0429297 39.063866,41.5322338 35.8227738,41.5131943 C32.7804427,41.4950677 30.0964425,39.1061429 30.1172334,35.7841537 C30.1389599,32.3255456 32.980451,30.0732396 35.9197634,30.083602 Z M26.4512428,26.4049406 C24.6884239,26.7467464 23.021379,27.0699195 21.2673515,27.410069 C21.8597844,29.124998 22.4128114,30.7258539 22.9988318,32.4228749 C24.1809051,30.36231 25.2864419,28.4352792 26.4512428,26.4049406 Z M45.2019299,26.3979016 C46.3786249,28.4326913 47.492436,30.3585835 48.6637527,32.3842639 C49.2406715,30.6878639 49.7862517,29.0837992 50.3593436,27.3990964 C48.6149349,27.0603961 46.9581293,26.7387757 45.2019299,26.3979016 Z M47.0888617,11.293545 C45.3745504,11.6381457 43.8643016,12.464504 42.4107311,13.3986212 C40.7859881,14.4425676 39.2924946,15.6538974 37.8552656,17.0058002 C37.9640714,17.1602442 38.0263347,17.2629308 38.1021471,17.3542309 C39.6848986,19.2596271 41.2655815,21.1666796 42.8601238,23.0621384 C42.9773071,23.2014693 43.1863342,23.308193 43.3684701,23.339972 C43.9937929,23.4489731 44.6292517,23.4990742 45.2549882,23.6059014 C47.1642604,23.9318694 49.0708435,24.2739857 51.0190044,24.6170336 C51.0532389,24.4774957 51.1133303,24.2988293 51.1397044,24.1155046 C51.3783117,22.4499521 51.6961445,20.7901964 51.8235672,19.1159486 C51.9742611,17.1365393 51.855216,15.1552667 51.1408421,13.2637415 C50.7219606,12.1542703 50.0544393,11.2764651 48.7737996,11.1691203 C48.2184972,11.1226421 47.6380619,11.1830948 47.0888617,11.293545 Z M20.4426204,13.4766714 C20.0861057,14.519065 19.8528767,15.6544149 19.837466,16.7514644 C19.8124365,18.5337816 19.9767828,20.3224132 20.132855,22.1021425 C20.2084605,22.9646275 20.446861,23.8128275 20.5968309,24.5908444 C23.1906899,24.1687112 25.660229,23.7523748 28.1362841,23.3786865 C28.5235167,23.3200972 28.734302,23.1544736 28.9592569,22.8678412 C30.0112183,21.5278426 31.0796247,20.2004728 32.1599253,18.8831439 C32.6785109,18.2509792 33.2368127,17.6514217 33.8328655,16.9738141 C32.6456209,16.0282067 31.5339818,15.0763885 30.3540806,14.2185617 C28.5360315,12.8968852 26.6226222,11.7017037 24.3675917,11.3106249 C22.2957315,10.9513252 21.1977448,11.2694261 20.4426204,13.4766714 Z M35.7991263,18.9529129 C34.6101234,20.339079 33.5034489,21.6291835 32.3376138,22.9884359 L39.3099738,22.9884359 C38.1091802,21.60817 36.9859572,20.3171339 35.7991263,18.9529129 Z" id="path-1"></path>
    </defs>
    <g id="Icon_React" stroke="none" stroke-width="1" fill="none" fill-rule="evenodd">
        <mask id="mask-2" fill="white">
            <use xlink:href="#path-1"></use>
        </mask>
        <use id="Clip-6" fill="#04B5E5" xlink:href="#path-1"></use>
    </g>
</svg>
